X:1
T:T
T:Colin disait
T:Lied  / HS.81.Vanpelt.278
T:Een speelmansboek uit Maastricht/Tongeren (1786-1824) 
T:BRON: Lusthof-der-muziek.blogspot.com: Handschrift van VanPelt (1786-1824)  / Transcriptie door Ad Kwakernaat (2015) 
T:Naar een origineel van Grétry André-Ernest-Modeste (1741-1813) 
T:Genoteerd door Van der Elst Johan
Z:Een speelmansboek uit Maastricht/Tongeren (1786-1824)
Z:Genoteerd door Van der Elst Johan
L:1/8
Q:1/4=100
M:2/2
K:G
V:1 treble nm="Viool" snm="Vl."
V:1
 (dedc) || (cB)(Bc) (dB)(ed) | c2 c2 (cdcB) | (BA)(AB) (cA)(dc) | %4
 (Bd)!wedge!d!wedge!d (Ac)!wedge!c!wedge!c | (Bd)!wedge!d!wedge!d (Ac)!wedge!c!wedge!c | %6
 BdAc Bcde | fgab g2 f2 | g4 (de)!wedge!d!wedge!c | B2 Bc dBed | d2 c2 cdcB | A2 AB cAdc | %12
 (cB)(AG) d2 dd | b3 a gfed | ^c4 gfge | gfed d2 ^c2 | d4 (dB)(dB) | e4 (ec)(ec) | f4 gbgd | %19
 gdBG A3 B/c/ |{c} B4 Bcde | fgab g2 f2 | %22
"_BRON: Alamire uitgave \"Speelmansboek uit Maastricht\"\n vermeldt bij concordatie:\n              + HS.81.Vanpelt.278 = HS.81.Vanpelt.114\n              + Grétry André-Ernest-Modeste (1741-1813), Colinette à la cour (1782)\n              + La Clé du Caveau (Paris, 4de ed., 1848): 99\n" (Bd)!wedge!d!wedge!d (Ac)!wedge!c!wedge!c | %23
 (Bd)!wedge!d!wedge!d (Ac)!wedge!c!wedge!c | B4 Bcde | fgab g2 f2 | g4 |] %27

